X: 1260
T: Kirpiğine Sürme Çek
C: Refik Fersan
O: Turkey
F: http://compmusic.upf.edu/node/140
N: mahur--zeybek--aydin--kirpigine_surme--refik_fersan
N: makam= mahur
N: form= zeybek
N: usul= aydin = 9/8
M: 9/8
L: 1/16
K: C ^9/8f   
Q: 1/4=96
%%MIDI tuningsystem comma53
z4 z4 z4 .g2.g2 .g2 | g3/2f/ efga fag4.f2 .f2.f2  | \
w:   |   | 
f2ef ga/g/fe d2^c/d/e/f/ .g2.g2 .g2 | 
w:   | 
g3/2f/ efga fag4.f2 .f2.f2  | f2ef ga/g/fe d4 g2=f2 e2 | 
w:   |   | 
d3/2c/ de=f3/2e/ dcB4^c/d3/2 c/d3/2de  | \
w:   | 
=f3/2e/d^c _7/8B3/2A/G^F G2(3A/=B/=c/(3d/e/^9/8f/ g2=f2 e2 | 
w:   | 
d3/2c/ de=f3/2e/ dcB4^c/d3/2 c/d3/2de  | \
w:   | 
=f3/2e/d^c _7/8B3/2A/G^F G4 g2g2 g2 | 
w:  *  *  *  *  *  *  *  *  *  Kir pi ği  | 
g3ffe2fg4f2 f2f2  | f2ef g{a}gfe d4 g2g2 g2 | \
w:  ne  *  sür *  me  çek  kı na  yak   |  par *  *  ma *  ğı *  *  na   Kir pi ği  | 
g3ffe2fg4f2 f2f2  | 
w:  ne  *  sür *  me  çek  kı na  yak   | 
f2ef g{a}gfe d4 fga2 a2 | g=f eddc {d}dcB3/2^A/ B2d2 zdd2  | 
w:  par *  *  ma *  ğı *  *  na   Bu  *  yıl  ya  |  şın  *  *  *  gi *  *  re *  cek  *  *  kız  ge lin  | 
{e}d3/2^c/_7/8B/A/B cde/=f/e/d/ d4 =c2c2 c2 | \
w:  *  lik  *  *  *  *  ça *  *  *  ğı *  na   Bu  yıl  ya  | 
c2 (3B^AB^cd/e/ dc_7/8B3/2=A/ G2g3gg2  | 
w:  şın  *  *  *  gi *  *  re *  cek  *  *  kız  ge lin  | 
=f3/2e/d^c _7/8B3/2A/G^F G4 G2=B2 B2 | \
w:  lik  *  *  *  ça *  *  ğı na   SAZ  | 
c4d/c/d/e/ dcB4.G2 .B2.B2  | 
w:   | 
^c4 c4 d4 .G2.B2 .B2 | c4dc {e}dcB4ag =fed^c  | \
w:   |   | 
_7/8B3A d^cBA G4 G2d2 d2 | 
w:  *  *  *  *  *  *  *  An la tı  | 
e2 {g}=fed3/2^c/ Bcd4ag feed  | e/d/d/c/de {g}=fedc B4 ^c/d3/2d2 d2 | 
w:  yor  *  *  *  du *  *  ru şun  ben  *  sa *  na   |  vu *  *  *  *  *  *  rul *  mu *  şum   Ko  *  düş sün  | 
e/d^c/ (3_7/8BABcd e{=f}e/d/d4g3gg2  | \
w:  gö *  *  *  *  *  nül  *  ku *  *  *  şum  saç la rı  | 
{g}=f3/2e/d^c _7/8B3/2A/G^F G4 =c2c2 c2 | 
w:  *  nın  *  *  *  a *  *  ğı na   Ko  düş sün  | 
c2 (3B^AB^cd/e/ dc_7/8B3/2=A/ G2g3gg2  | \
w:  gö *  *  *  nül  *  *  ku *  şum  *  *  saç la rı  | 
g/=fe/d^c _7/8B3/2A/G^F G4 .g2.g2 .g2 | 
w:  nın  *  *  *  *  a *  *  ğı na   SAZ  | 
g3/2f/ efga fag4.f2 .f2.f2  | f2ef ga/g/fe d2^c/d/e/f/ .g2.g2 .g2 | 
w:   |   | 
g3/2f/ efga fag4.f2 .f2.f2  | f2ef ga/g/fe d4 g2=f2 e2 | 
w:   |   | 
d3/2c/ de=f3/2e/ dcB4^c/d3/2 c/d3/2de  | \
w:   | 
=f3/2e/d^c _7/8B3/2A/G^F G2(3A/=B/=c/(3d/e/^9/8f/ g2=f2 e2 | 
w:   | 
d3/2c/ de=f3/2e/ dcB4^c/d3/2 c/d3/2de  | \
w:   | 
=f3/2e/d^c _7/8B3/2A/G^F G4 g2g2 g2 | 
w:  *  *  *  *  *  *  *  *  *  Kir pi ği  | 
g3ffe2fg4f2 f2f2  | f2ef g{a}gfe d4 g2g2 g2 | \
w:  ne  *  sür *  me  çek  kı na  yak   |  par *  *  ma *  ğı *  *  na   Kir pi ği  | 
g3ffe2fg4f2 f2f2  | 
w:  ne  *  sür *  me  çek  kı na  yak   | 
f2ef g{a}gfe d4 fga2 a2 | g=f eddc {d}dcB3/2^A/ B2d2 zdd2  | 
w:  par *  *  ma *  ğı *  *  na   Bu  *  yıl  ya  |  şın  *  *  *  gi *  *  re *  cek  *  *  kız  ge lin  | 
{e}d3/2^c/_7/8B/A/B cde/=f/e/d/ d4 =c2c2 c2 | \
w:  *  lik  *  *  *  *  ça *  *  *  ğı *  na   Bu  yıl  ya  | 
c2 (3B^AB^cd/e/ dc_7/8B3/2=A/ G2g3gg2  | 
w:  şın  *  *  *  gi *  *  re *  cek  *  *  kız  ge lin  | 
=f3/2e/d^c _7/8B3/2A/G^F G4 G2=B2 B2 | \
w:  lik  *  *  *  ça *  *  ğı na   SAZ  | 
c4d/c/d/e/ dcB4.G2 .B2.B2  | 
w:   | 
^c4 c4 d4 .G2.B2 .B2 | c4dc {e}dcB4ag =fed^c  | \
w:   |   | 
_7/8B3A d^cBA G4 G2d2 d2 | 
w:  *  *  *  *  *  *  *  An la tı  | 
e2 {g}=fed3/2^c/ Bcd4ag feed  | e/d/d/c/de {g}=fedc B4 ^c/d3/2d2 d2 | 
w:  yor  *  *  *  du *  *  ru şun  ben  *  sa *  na   |  vu *  *  *  *  *  *  rul *  mu *  şum   Ko  *  düş sün  | 
e/d^c/ (3_7/8BABcd e{=f}e/d/d4g3gg2  | \
w:  gö *  *  *  *  *  nül  *  ku *  *  *  şum  saç la rı  | 
{g}=f3/2e/d^c _7/8B3/2A/G^F G4 =c2c2 c2 | 
w:  *  nın  *  *  *  a *  *  ğı na   Ko  düş sün  | 
c2 (3B^AB^cd/e/ dc_7/8B3/2=A/ G2g3gg2  | \
w:  gö *  *  *  nül  *  *  ku *  şum  *  *  saç la rı  | 
g/=fe/d^c _7/8B3/2A/G^F G6z4 | 
w:  nın  *  *  *  *  a *  *  ğı na    | 
|


